images/linkedin.svg

<svg width="14" height="14" viewBox="0 0 14 14" fill="none" xmlns="http://www.w3.org/2000/svg">
<path d="M2.28682 3.375C3.1709 3.375 3.8876 2.61948 3.8876 1.6875C3.8876 0.75552 3.1709 0 2.28682 0C1.40273 0 0.686035 0.75552 0.686035 1.6875C0.686035 2.61948 1.40273 3.375 2.28682 3.375Z" fill="white"/>
<path d="M3.6208 4.5H0.952832C0.80556 4.5 0.686035 4.626 0.686035 4.78125V13.2188C0.686035 13.374 0.80556 13.5 0.952832 13.5H3.6208C3.76807 13.5 3.8876 13.374 3.8876 13.2188V4.78125C3.8876 4.626 3.76807 4.5 3.6208 4.5Z" fill="white"/>
<path d="M11.5698 4.11247C10.4295 3.70072 9.00321 4.06241 8.14786 4.71097C8.11851 4.59003 8.01393 4.50003 7.8896 4.50003H5.22163C5.07436 4.50003 4.95483 4.62603 4.95483 4.78128V13.2188C4.95483 13.374 5.07436 13.5 5.22163 13.5H7.8896C8.03687 13.5 8.1564 13.374 8.1564 13.2188V7.15503C8.58754 6.76353 9.14301 6.63866 9.59763 6.84228C10.0384 7.0386 10.2908 7.51785 10.2908 8.15628V13.2188C10.2908 13.374 10.4103 13.5 10.5576 13.5H13.2255C13.3728 13.5 13.4923 13.374 13.4923 13.2188V7.58985C13.4619 5.27853 12.4305 4.42297 11.5698 4.11247Z" fill="white"/>
</svg>

<svg xmlns="http://www.w3.org/2000/svg" width="14" height="14" fill="none" viewBox="0 0 14 14"><path fill="#fff" d="M2.287 3.375c.884 0 1.6-.756 1.6-1.687C3.888.756 3.172 0 2.288 0S.686.756.686 1.688s.717 1.687 1.6 1.687M3.62 4.5H.954a.274.274 0 0 0-.267.281v8.438c0 .155.12.281.267.281H3.62a.274.274 0 0 0 .267-.281V4.78a.274.274 0 0 0-.267-.28m7.95-.388c-1.14-.411-2.567-.05-3.422.599A.27.27 0 0 0 7.89 4.5H5.222a.274.274 0 0 0-.267.281v8.438c0 .155.12.281.267.281H7.89a.274.274 0 0 0 .266-.281V7.155c.432-.391.987-.516 1.442-.313.44.197.693.676.693 1.314v5.063c0 .155.12.281.267.281h2.668a.274.274 0 0 0 .266-.281v-5.63c-.03-2.31-1.062-3.166-1.922-3.477"/></svg>
